X: 18929
T: Indian Point
R: jig
M: 6/8
K: Eminor
|:B,EF G2A|BAG FED|CEF G2A|BAG BAG|FED A,2D|
FEF AGF|1 EFG BAG|F3 FED:|2 GFE FED|E3 EFA||
|:Bef gfe|cef gfe|dfg agf|gfe fed|
Bef gfe|ceg a2a|bag fed|1 e3 edc:|2 e3 FED||

